icons/solid/cursor-click.svg

<svg width="24" height="24" viewBox="0 0 24 24" fill="none" xmlns="http://www.w3.org/2000/svg">
<path fill-rule="evenodd" clip-rule="evenodd" d="M8.94868 2.6838C8.77403 2.15986 8.20771 1.8767 7.68377 2.05134C7.15983 2.22599 6.87667 2.79231 7.05131 3.31625L8.05131 6.31625C8.22596 6.8402 8.79228 7.12336 9.31622 6.94871C9.84017 6.77406 10.1233 6.20774 9.94868 5.6838L8.94868 2.6838ZM15.7071 5.70713C16.0976 5.31661 16.0976 4.68344 15.7071 4.29292C15.3166 3.9024 14.6834 3.9024 14.2929 4.29292L12.2929 6.29292C11.9024 6.68344 11.9024 7.31661 12.2929 7.70713C12.6834 8.09766 13.3166 8.09766 13.7071 7.70713L15.7071 5.70713ZM3.31622 7.05134C2.79228 6.8767 2.22596 7.15986 2.05131 7.6838C1.87667 8.20774 2.15983 8.77406 2.68377 8.94871L5.68377 9.94871C6.20771 10.1234 6.77403 9.8402 6.94868 9.31626C7.12333 8.79231 6.84017 8.22599 6.31622 8.05134L3.31622 7.05134ZM10.3417 9.06023C9.97661 8.92746 9.56762 9.01819 9.29289 9.29292C9.01816 9.56765 8.92743 9.97664 9.0602 10.3418L13.0602 21.3418C13.2019 21.7315 13.5695 21.9933 13.9841 21.9999C14.3988 22.0065 14.7745 21.7565 14.9285 21.3714L16.3652 17.7795L20.2929 21.7071C20.6834 22.0977 21.3166 22.0977 21.7071 21.7071C22.0976 21.3166 22.0976 20.6834 21.7071 20.2929L17.7795 16.3653L21.3714 14.9285C21.7564 14.7745 22.0065 14.3988 21.9999 13.9842C21.9933 13.5695 21.7315 13.202 21.3417 13.0602L10.3417 9.06023ZM7.7071 13.7071C8.09763 13.3166 8.09763 12.6834 7.7071 12.2929C7.31658 11.9024 6.68341 11.9024 6.29289 12.2929L4.29289 14.2929C3.90237 14.6834 3.90237 15.3166 4.29289 15.7071C4.68341 16.0977 5.31658 16.0977 5.7071 15.7071L7.7071 13.7071Z" fill="currentColor"/>
</svg>

<svg width="24" height="24" fill="none" xmlns="http://www.w3.org/2000/svg"><path fill-rule="evenodd" clip-rule="evenodd" d="M8.949 2.684a1 1 0 00-1.898.632l1 3a1 1 0 101.898-.632l-1-3zm6.758 3.023a1 1 0 00-1.414-1.414l-2 2a1 1 0 001.414 1.414l2-2zM3.317 7.051a1 1 0 00-.633 1.898l3 1a1 1 0 10.632-1.898l-3-1zm7.025 2.01a1 1 0 00-1.282 1.28l4 11a1 1 0 001.868.03l1.437-3.591 3.928 3.927a1 1 0 101.414-1.414l-3.928-3.928 3.592-1.436a1 1 0 00-.03-1.869l-11-4zm-2.635 4.646a1 1 0 10-1.414-1.414l-2 2a1 1 0 101.414 1.414l2-2z" fill="currentColor"/></svg>
